X: 1148
T: İncecikten Bir Kar Yağar
C: Sadettin Kaynak
O: Turkey
F: http://compmusic.upf.edu/node/140
N: segah--turku--kapali_curcuna--incecikten_bir--sadettin_kaynak
N: makam= segah
N: form= turku
N: usul= kapali_curcuna = 10/8
M: 10/8
L: 1/16
K: C _1/4B _1/4e ^f 
Q: 1/4=216
%%MIDI tuningsystem comma53
.g4 z2.g4.f4.g4z2  | .g4 z2.a4.f4.c2 .d2.e2  | \
w:  ARANAĞME  |   | 
.f4 z2.f4.e4.f4z2  | .f4 z2.g4.e4.B2 .c2.d2  | 
w:   |   | 
.e4 z2.e4.d4.e4z2  | .e4 z2.f4d4d2 ^c2c2  | \
w:   |   | 
B6c4d4c4z2  | d6c4B4=f6  | 
w:   |   | 
e6d4c4d4z2  | c6B4.B4.d2 .e2.f2  | g6g4f4g4z2  | \
w:   |   |  İn ce cik ten   | 
g6g4f4g4z2  | 
w:  bir  kar  ya ğar    | 
g6f4g4a6  | g6f4e4d2 e2f2  | g6g4f4g4z2  | \
w:  To zar  E lif   |  E lif  di ye    |  İn ce cik ten   | 
g6g4f4g4z2  | g6f4g4a6  | 
w:  bir  kar  ya ğar    |  To zar  E lif   | 
g6f4e4d4z2  | e6d4c4e4z2  | d6c4B4d4z2  | \
w:  E lif  di ye    |  De li  gö nül   |  hay ran  ol muş   | 
d6d4d4g4z2  | d6c4B4c4z2  | 
w:  Ge zer  E lif   |  E lif  di ye    | 
c4 B2B2 A2A2 G2c4B2  | B8-B2c2 BAG2 A2B2  | \
w:  Yâr  *  sa *  na  *  hay  |  ran  SAZ  | 
c4 B2B2 A2A2 G2c4B2  | 
w:  Can  *  sa *  na  *  kur  | 
B8-B2Bc B^3/4ABc de=f2  | =f6f2 e2f2 e2{e}g4e2  | \
w:  ban   SAZ  |  Der di *  me  *  *  der  | 
e4 d2d4d4{e}d2 c2B2  | 
w:  man  *  bu la *  mam   | 
B6d4d2 c2c4B2  | {d}c8-c2c4c4B2  | B6d4d4{e}d2 c2B2  | \
w:  aşk tan  el  *  a  |  *  man    |  aşk tan  el  *  a  | 
B8-B2B2 c2d2 e2f2  | 
w:  man   SAZ  | 
.g4 z2.g4.f4.g4z2  | .g4 z2.a4.f4.c2 .d2.e2  | \
w:  ARANAĞME  |   | 
.f4 z2.f4.e4.f4z2  | .f4 z2.g4.e4.B2 .c2.d2  | 
w:   |   | 
.e4 z2.e4.d4.e4z2  | .e4 z2.f4d4d2 ^c2c2  | \
w:   |   | 
B6c4d4c4z2  | d6c4B4=f6  | 
w:   |   | 
e6d4c4d4z2  | c6B4.B4.d2 .e2.f2  | g6g4f4g4z2  | \
w:   |   |  İn ce cik ten   | 
g6g4f4g4z2  | 
w:  bir  kar  ya ğar    | 
g6f4g4a6  | g6f4e4d2 e2f2  | g6g4f4g4z2  | \
w:  To zar  E lif   |  E lif  di ye    |  İn ce cik ten   | 
g6g4f4g4z2  | g6f4g4a6  | 
w:  bir  kar  ya ğar    |  To zar  E lif   | 
g6f4e4d4z2  | e6d4c4e4z2  | d6c4B4d4z2  | \
w:  E lif  di ye    |  De li  gö nül   |  hay ran  ol muş   | 
d6d4d4g4z2  | d6c4B4c4z2  | 
w:  Ge zer  E lif   |  E lif  di ye    | 
c4 B2B2 A2A2 G2c4B2  | B8-B2c2 BAG2 A2B2  | \
w:  Yâr  *  sa *  na  *  hay  |  ran  SAZ  | 
c4 B2B2 A2A2 G2c4B2  | 
w:  Can  *  sa *  na  *  kur  | 
B8-B2Bc B^3/4ABc de=f2  | =f6f2 e2f2 e2{e}g4e2  | \
w:  ban   SAZ  |  Der di *  me  *  *  der  | 
e4 d2d4d4{e}d2 c2B2  | 
w:  man  *  bu la *  mam   | 
B6d4d2 c2c4B2  | {d}c8-c2c4c4B2  | B6d4d4{e}d2 c2B2  | \
w:  aşk tan  el  *  a  |  *  man    |  aşk tan  el  *  a  | 
B8-B2|
w:  man    | 


